X:1
T:Sechs Lieder von Novalis, Op.4
T:Geistliches Lied
T:3a. Geistliches Lied
T:Louise Reichardt
T:Sechs Lieder von Novalis, Op.4
T:Novalis (Georg Friedrich Freiherr von Hardenberg) 
T:OpenScore (CC0)
C:Louise Reichardt
Z:Novalis (Georg Friedrich Freiherr von Hardenberg)
Z:OpenScore (CC0)
%%score 1 { ( 2 3 ) | 4 }
L:1/8
Q:1/4=140
M:4/4
K:Db
V:1 treble nm="Voice"
V:2 treble nm="Piano"
V:3 treble 
V:4 bass 
V:1
"^Nicht zu langsam"!mp! A2 A2 f2 e2 | d4 A4 |!p! A2 d2 c2 =G2 | A8 |!mp! =A2 A2 B2 d2 | %5
"_cresc." f2 e2 e3 d | c4 B2 c2 | d2 B2 A2 =G2 |{=G} A8 |!mf! A2 A2 B2 F2 |"_dim."{A} _G4 G4 | %11
 F3 D G3 E | A2 D2 B2 D2 | (!turn!D4{F} E4) |!mp! D8 :| %15
V:2
 A2 A2 f2 e2 | d4 [DFA]4 | [DFA]2 [FBd]2 [EAc]2 [DE=G]2 | [CEA]8 | =A2 A2 B2 d2 | f2 e2 e3 d | %6
w: 1. Wenn  ich ihn nur|ha- be,|wenn er mein nur|ist,|wenn mein Herz bis|hin zum Gra- *|
w: 2. Wenn ich ihn nur|ha- be,|lass ich al- les|gern,|folg' an mein- em|Wan- der- sta- *|
 c4 B2 c2 | d2 B2 [CA]2 [B,=G]2 |{[B,=G]} [CA]8 | A2 A2 B2 F2 |{A} _G4 G4 | F3 D G3 E | %12
w: be sei- ne|Treu- e nie ver-|gisst,|Weiss ich nichts von|Lei- de,|füh- le nichts als|
w: be, treu ge-|sinnt nur mei- nem|Herrn,|Las- se still die|an- dern|brei- te, lich- te,|
 A2 D2 B2 D2 | (!turn!D4{F} E4) | D8 :| %15
w: An- dacht, Lieb und|Freu- *|de.|
w: vol- le Stras- sen|wan- *|dern.|
V:3
 x4 [Ad]2 [Gc]2 | [FA]4 x4 | x8 | x8 | _G4 F4 | =G2 A2 G4 | A4 F2 [F=A]2 | [FB]2 D2 x4 | x8 | %9
 C4 =D4 | E4 E4 | x4 C4 | D4 D2 B,2 | x4 C4 | x8 :| %15
V:4
 z4 [D,D]2 [A,,A,]2 | [D,,D,]4 [D,,D,]4 | D,2 B,,2 E,2 E,,2 | A,,8 | E4 D4 | D2 C2 B,2 E,2 | %6
 F,4 D,2 C,2 | B,,4 E,4 | A,,8 | A,8- | A,2 A,,2 C,2 A,,2 | D,2 A,,2 E,2 A,,2 | %12
 F,2 D,2 G,2 [=G,,_F,]2 | [A,,=F,]4 [A,,_G,]4 | [D,F,]8 :| %15

